X:6
T:So Early In The Morning (b)
M:6/8
L:1/8
K:D
F|\
A2A F2F|A2A F2A|A2A B2D|D2C B,2A,|
D2E F2G|Ad2 B2A|A2A ABc|d2D D2F|
AAA F2F|AAA F2A|AAA B2D|D2C B,2A,|
D2E F2G|Ad2 B2A|A2A ABc|d2D D2
